icon-svg/blu-os.svg

<svg xmlns="http://www.w3.org/2000/svg" viewBox="0 0 24 24"><path fill="#44739e" d="M20.841 8.844a7.04 7.04 0 0 0-1.981-5.192A6.4 6.4 0 0 0 14.572 2H3.626a.47.47 0 0 0-.393.245.4.4 0 0 0-.074.223c-.012 1.67-.007 2.118.006 3.041l.007.657c.011.916.365 3.056 3.436 3.136l7.99-.017a5.7 5.7 0 0 1 3.81 1.428A4.5 4.5 0 0 1 19.28 12a4.5 4.5 0 0 1-.876 1.288 5.7 5.7 0 0 1-3.831 1.426l-7.975-.021c-3.057.08-3.411 2.22-3.422 3.136l-.007.657c-.013.924-.018 1.371-.006 3.042a.477.477 0 0 0 .473.472h11a6.43 6.43 0 0 0 4.223-1.651 7.04 7.04 0 0 0 1.981-5.193 8.2 8.2 0 0 0-.5-3.156 8.2 8.2 0 0 0 .501-3.156m-1.78 1.18a6.56 6.56 0 0 0-4.49-1.691l-7.952.023c-1.639-.043-2.478-.781-2.494-2.2L4.116 5.5c-.01-.821-.016-1.271-.008-2.548H14.59a5.5 5.5 0 0 1 3.616 1.39 6.13 6.13 0 0 1 1.683 4.52 8 8 0 0 1-.2 1.915 5.3 5.3 0 0 0-.628-.753m.828 5.114a6.14 6.14 0 0 1-1.676 4.512 5.55 5.55 0 0 1-3.641 1.4H4.108c-.008-1.277 0-1.727.008-2.548l.009-.659c.016-1.413.855-2.152 2.481-2.2l7.944.022a6.53 6.53 0 0 0 4.511-1.69 5.3 5.3 0 0 0 .632-.755 8 8 0 0 1 .196 1.918"/></svg>

<?xml version="1.0" encoding="UTF-8"?>
<svg width="24px" fill="#44739e" height="24px" viewBox="0 0 24 24" version="1.1" xmlns="http://www.w3.org/2000/svg" xmlns:xlink="http://www.w3.org/1999/xlink">
            <path d="M 20.843,8.844 A 7.037,7.037 0 0 0 18.862,3.652 6.411,6.411 0 0 0 14.574,2 H 3.641 3.628 A 0.466,0.466 0 0 0 3.235,2.245 0.41,0.41 0 0 0 3.161,2.468 C 3.149,4.138 3.154,4.586 3.167,5.509 L 3.174,6.166 C 3.185,7.082 3.539,9.222 6.61,9.302 L 14.6,9.285 a 5.7,5.7 0 0 1 3.81,1.428 4.473,4.473 0 0 1 0.872,1.287 4.486,4.486 0 0 1 -0.876,1.288 5.707,5.707 0 0 1 -3.831,1.426 L 6.6,14.693 c -3.057,0.08 -3.411,2.22 -3.422,3.136 L 3.171,18.486 C 3.158,19.41 3.153,19.857 3.165,21.528 A 0.477,0.477 0 0 0 3.638,22 h 11 a 6.43,6.43 0 0 0 4.223,-1.651 7.037,7.037 0 0 0 1.981,-5.193 8.22,8.22 0 0 0 -0.5,-3.156 8.213,8.213 0 0 0 0.501,-3.156 z m -1.78,1.18 A 6.559,6.559 0 0 0 14.573,8.333 L 6.621,8.356 C 4.982,8.313 4.143,7.575 4.127,6.156 L 4.118,5.5 C 4.108,4.679 4.102,4.229 4.11,2.952 h 10.482 a 5.512,5.512 0 0 1 3.616,1.39 6.132,6.132 0 0 1 1.683,4.52 8.063,8.063 0 0 1 -0.2,1.915 5.3,5.3 0 0 0 -0.628,-0.753 z m 0.828,5.114 a 6.136,6.136 0 0 1 -1.676,4.512 5.551,5.551 0 0 1 -3.641,1.4 H 4.11 c -0.008,-1.277 0,-1.727 0.008,-2.548 l 0.009,-0.659 c 0.016,-1.413 0.855,-2.152 2.481,-2.2 l 7.944,0.022 a 6.526,6.526 0 0 0 4.511,-1.69 5.3,5.3 0 0 0 0.632,-0.755 8.067,8.067 0 0 1 0.196,1.918 z"/>

</svg>
